X:1
T:The Last Thing On My Mind
T:The Last thing on my mind
T:Tom Paxton
C:Tom Paxton
Z:All Rights Reserved
L:1/8
M:4/4
K:G
V:1 treble 
%%MIDI program 4
%%MIDI control 7 100
%%MIDI control 10 64
V:1
 z4 z2 B,C |"G" D D2 G"C" G2 GD |"G" E2 D4"C" B,C |"G" B,6"D7" A,A, |"G" G,6 B,C | D2 GG"C" GGGE | %6
w: It's a|les- son too late for the|learn- ing made of|sand made of|sand in the|wink of an eye my soul is|
w: |rea- son a- plen- ty for|go- ing this I|know this I|know for the|weeds have been stead- * i- ly|
w: |lie in my bed in the|morn- ing with- out|you with- out|you each song|in my breast dies a- * born-|
"G" EDD- D2 z"C" B,C |"G" B,4 z2"D7" A,A, |"G" G,4 z FGA- |"D7" A2 AA A2 GF |"C" G2 GG"G" G2 EF | %11
w: turn- * ing * in your|hand in your|hand are you go-|* ing a way with no|word of fare- well will there|
w: grow- * ing * please dont|go please dont|go * * *|||
w: * ing * * with- out|you with- out|you * * *|||
"C" G2 FE"G" DCB,A,- |"D7" A,4 z2 FG |"G" GGGA"C" GGFE |"G" DDDE D-DB,D |"D7" z DDD DCB,A, |1 %16
w: be not a trace left be- hind|* well I|could have loved you bet- ter did- nt|mean to be un- kind * you know|that was the last thing on my|
w: |||||
w: |||||
"G" G,4 z2 B,D :|3"G" G,4 z4 |"D7" z DDD DCB,A, |"G" G,4 z4 |] %20
w: mind. you've got|mind|that was the last thing on my|mind.|
w: * As I||||
w: ||||

